X:1
T:DANCING MAD
T:FROM "FINAL FANTASY VI"
T:COMPOSED BY NOBUO UEMATSU
T:TRANSCRIPTED BY TRUSTPIANO
%%score ( 1 2 3 ) { ( 4 6 ) | ( 5 7 ) }
L:1/8
Q:1/4=120
M:2/2
K:Ab
V:1 treble nm="Piano"
V:2 treble 
V:3 treble 
V:4 bass nm="Klavier, SmartMusic SoftSynth 1" snm="Klav."
V:6 bass 
V:5 treble 
V:7 treble 
V:1
 z8 | [EFB]4 [=DGc]4 | [DAd]8- | [DAd]8 | z8 | [EFB]4 [=DGc]4 | [Adf]8- | [Adf]8 |[Q:1/4=124] z8 | %9
 [EFB]4 [=DGc]4 | [DAd]8- | [DAd]8 | z8 | [EFB]4 [=DGc]4 | [Adf]8- | [Adf]8 | [G,CE]4 [B,=DG]4 | %17
 z4 .B4 | [Gce]4 [B=dg]4 | [Be_g]4 b2 c'2 | =d'8- | d'8- | d'8- | d'8 | c'8- | c'8- | c'8- | c'8 | %28
 c4 e4 | =d4 c4 | _c4 =c2 =d2 | c8 | [EGB]8 | [FAc]8 | [=DG_c]8 | [EGc]8 | c4 e4 | =d4 c4 | %38
 _c4 =c2 =d2 | c8 | [FAc]8 | [=DG_c]8 |[Q:1/4=192] EFGE FGAF | Gcec =dc_cd | EFGE FGAF | %45
 Gcec =dc_cd | EFGE FGAF | Gcec =dc_cd | EFGE FGAF | Gcec =dc_cd | fgaf =defd | _c=c=d_c G=AcG | %52
 c=dec ABcA | FGAF =DEFD | EFGE FGAF | Gcec =dc_cd | EFGE FGAF | Gcec =dc_cd | EFGE FGAF | %59
 Gcec =dc_cd | EFGE FGAF | Gcec =dc_cd |[Q:1/4=124] z8 | [EFB]4 [=DGc]4 | [DAd]8- | [DAd]8 | z8 | %67
 [EFB]4 [=DGc]4 | [Adf]8- | [Adf]8 | z8 | [EFB]4 [=DGc]4 | [DAd]8- | [DAd]8 | z8 | [EFB]4 [=DGc]4 | %76
 [Adf]8- | [Adf]8 |[Q:1/4=124] [G,CE]4 [B,=DG]4 | z4 .B4 | [Gce]4 [B=dg]4 | [Be_g]4 b2 c'2 | %82
 =d'8- | d'8- | d'8- | d'8 | c'8- | c'8- | c'8- | c'8 | c4 e4 | =d4 c4 | _c4 =c2 =d2 | c8 | %94
 [EGB]8 | [FAc]8 | [=DG_c]8 | [EGc]8 | c4 e4 | =d4 c4 | _c4 =c2 =d2 | c8 | [FAc]8 | [=DG_c]8 | %104
[Q:1/4=192] EFGE FGAF | Gcec =dc_cd | EFGE FGAF | Gcec =dc_cd | EFGE FGAF | Gcec =dc_cd | %110
 EFGE FGAF | Gcec =dc_cd | fgaf =defd | _c=c=d_c G=AcG | c=dec ABcA | FGAF =DEFD | EFGE FGAF | %117
 Gcec =dc_cd | EFGE FGAF | Gcec =dc_cd | EFGE FGAF | Gcec =dc_cd | EFGE FGAF | Gcec =dc_cd | %124
[Q:1/4=124] z8 | [EFB]4 [=DGc]4 | [DAd]8- | [DAd]8 | z8 | [EFB]4 [=DGc]4 | [Adf]8- | [Adf]8 | z8 | %133
 [EFB]4 [=DGc]4 | [DAd]8- | [DAd]8 | z8 | [EFB]4 [=DGc]4 | [Adf]8- | [Adf]8 | [G,CE]4 [B,=DG]4 | %141
 z4 .B4 |[Q:1/4=124] [Gce]4 [B=dg]4 | [Be_g]4 b2 c'2 | =d'8- | d'8- | d'8- | d'8 | c'8- | c'8- | %150
 c'8- | c'8[Q:1/4=116] | [=EA]2 [EA][_EG] [=EA]2 [EA][_EG] | [=EA]2 [EA][_EG] [=EA][_EG] [=D_c]2 | %154
 [=EA]2 [EA][_EG] [=EA]2 [EA][_EG] | [=EA]2 [EA][_EG] [=EA][_EG] [=D_c]2 | %156
 [=EA]2 [EA][_EG] [=EA]2 [EA][_EG] | [=EA]2 [EA][_EG] [=EA][_EG] [=D_c]2 | %158
 [=EA]2 [EA][_EG] [=EA]2 [EA][_EG] | [=EA]2 [EA][_EG] [=EA][_EG] [=D_c]2 | %160
 [=EA]2 [EA][_EG] [=EA]2 [EA][_EG] | [=EA]2 [EA][_EG] [=EA][_EG] [=D_c]2 | %162
 [=EA]2 [EA][_EG] [=EA]2 [EA][_EG] | [=EA]2 [EA][_EG] [=EA][_EG] [=D_c]2 | %164
 [=EA]2 [EA][_EG] [=EA]2 [EA][_EG] | [=EA]2 [EA][_EG] [=EA][_EG] [=D_c]2 | %166
 [=EA]2 [EA][_EG] [=EA]2 [EA][_EG] | [=EA]2 [EA][_EG] [=EA][_EG] [=D_c]2 | [_gad']8 | %169
 [_gad']4 [=dgc']4 | [_gad']8 | [_gad']4 [=dgc']4 | [=a_c'=e']8 | [=a_c'=e']4 [efb]4 | %174
 [=a_c'=e']8 | [=a_c'=e']4 [efb]4 | [=EA]2 [EA][_EG] [=EA]2 [EA][_EG] | %177
 [=EA]2 [EA][_EG] [=EA][_EG] [=D_c]2 | [=EA]2 [EA][_EG] [=EA]2 [EA][_EG] | %179
 [=EA]2 [EA][_EG] [=EA][_EG] [=D_c]2 | [=EA]2 [EA][_EG] [=EA]2 [EA][_EG] | %181
 [=EA]2 [EA][_EG] [=EA][_EG] [=D_c]2 | [=EA]2 [EA][_EG] [=EA]2 [EA][_EG] | %183
 [=EA]2 [EA][_EG] [=EA][_EG] [=D_c]2 | [_gad']8 | [_gad']4 [=dgc']4 | [_gad']8 | %187
 [_gad']4 [=dgc']4 | [=a_c'=e']8 | [=a_c'=e']4 [efb]4 | [=a_c'=e']8 | [=a_c'=e']4 [efb]4 | %192
[Q:1/4=86] (3bc'd' (3gbd' (3abc' (3fac' | (3gab (3=egb (3fga (3=dfa | %194
 g/c/=e/g/ c'/c/b/c/ a/c/e/c/ f/c/a/c/ | g2 GA Bc/B/AG | A2 FG AB/A/GF | Gf=de fg/f/ed | %198
 [_Gc]2 [EG=A]2 (3z _ge (3cAG | [=DG]2 .[DG_c]6 | c'/g/f/c/ d/A/e/d/ c>F _G/_c/d/_g/ | %201
 f/c/B/c/ d/e/a/_g/ a/e/d/e/ =e/g/_c'/=a/ | a3 _g =e=a_a_e | %203
 d'/a/_g/d/ =d/=A/=e/d/ _d>_G =G/c/=d/=g/ | a[_gd'][=e_c'][gd'] .[=g=d']4 |[M:3/4] [=A=e]2 [G=d]4 | %206
[M:2/2][Q:1/4=116] [=EA]2 [EA][_EG] [=EA]2 [EA][_EG] | [=EA]2 [EA][_EG] [=EA][_EG] [=D_c]2 | %208
 [=EA]2 [EA][_EG] [=EA]2 [EA][_EG] | [=EA]2 [EA][_EG] [=EA][_EG] [=D_c]2 | %210
 [=EA]2 [EA][_EG] [=EA]2 [EA][_EG] | [=EA]2 [EA][_EG] [=EA][_EG] [=D_c]2 | %212
 [=EA]2 [EA][_EG] [=EA]2 [EA][_EG] | [=EA]2 [EA][_EG] [=EA][_EG] [=D_c]2 | [_gad']8 | %215
 [_gad']4 [=dgc']4 | [_gad']8 | [_gad']4 [=dgc']4 | [=a_c'=e']8 | [=a_c'=e']4 [efb]4 | %220
 [=a_c'=e']8 | [=a_c'=e']4 [efb]4 | [=EA]2 [EA][_EG] [=EA]2 [EA][_EG] | %223
 [=EA]2 [EA][_EG] [=EA][_EG] [=D_c]2 | [=EA]2 [EA][_EG] [=EA]2 [EA][_EG] | %225
 [=EA]2 [EA][_EG] [=EA][_EG] [=D_c]2 | [=EA]2 [EA][_EG] [=EA]2 [EA][_EG] | %227
 [=EA]2 [EA][_EG] [=EA][_EG] [=D_c]2 | [=EA]2 [EA][_EG] [=EA]2 [EA][_EG] | %229
 [=EA]2 [EA][_EG] [=EA][_EG] [=D_c]2 | [_gad']8 | [_gad']4 [=dgc']4 | [_gad']8 | %233
 [_gad']4 [=dgc']4 | [=a_c'=e']8 | [=a_c'=e']4 [efb]4 | [=a_c'=e']8 | [=a_c'=e']4 [efb]4 | %238
[Q:1/4=86] (3bc'd' (3gbd' (3abc' (3fac' | (3gab (3=egb (3fga (3=dfa | %240
 g/c/=e/g/ c'/c/b/c/ a/c/e/c/ f/c/a/c/ | g2 GA Bc/B/AG | A2 FG AB/A/GF | Gf=de fg/f/ed | %244
 [_Gc]2 [EG=A]2 (3z _ge (3cAG | [=DG]2 .[DG_c]6 | c'/g/f/c/ d/A/e/d/ c>F _G/_c/d/_g/ | %247
 f/c/B/c/ d/e/a/_g/ a/e/d/e/ =e/g/_c'/=a/ | a3 _g =e=a_a_e | %249
 d'/a/_g/d/ =d/=A/=e/d/ _d>_G =G/c/=d/=g/ | a[_gd'][=e_c'][gd'] .[=g=d']4 |[M:3/4] [=A=e]2 [G=d]4 | %252
[M:4/4] z4 [a=d']4 | z4 [a=d']4 | A/F/_G/A/ B/c/d/e/ f>c d/e/f/_g/ | %255
 a/d'/b/d'/ a/_g/f/e/ f/a/g/b/ a/g/f/d/ | e2 f/e/d/B/ c>E F/G/A/B/ | %257
 c/e/d/e/ c/B/A/B/ c/A/B/G/ A2 | F/D/C/D/ A,/D/C/D/ _G/D/C/D/ B,/D/C/D/ | %259
 A/D/C/D/ A,/D/C/D/ B/D/C/D/ B,/D/C/D/ | F2 _G/F/E F>E D/E/F/G/ | F2 _G/F/E F>E D2 | %262
 F/[Q:1/4=86]D/C/D/ A,/D/C/D/ F/D/C/D/ _G/D/C/D/ | F/D/C/D/ _G/D/C/D/ F/D/A,/D/ G/E/B,/C/ | %264
 F/D/C/D/ A,/D/C/D/ _G/D/C/D/ B,/D/C/D/ | A/D/C/D/ A,/D/C/D/ B/D/C/D/ B,/D/C/D/ | %266
 =E/D/C/D/ A,/D/C/D/ E/D/C/D/ _G/D/C/D/ | =E/D/C/D/ _G/D/C/D/ A/D/A,/D/ G/_E/A,/C/ | %268
 =E/D/C/D/ A,/D/C/D/ _G/D/C/D/ =A,/D/C/D/ | A/D/C/D/ A,/D/C/D/ =A/D/C/D/ =A,/D/C/D/ | %270
 =E/D/C/D/ _G/_E/=E/G/ A/E/_E/=E/ =A/G/_A/=A/ |[M:3/4] [=EG_c]=A/G/ _G/E/_E/D/ _C[=E=Gc] | %272
 [=E=Ac]_c/A/ G/_G/E/=D/ CC[Q:1/4=85] | %273
[M:4/4] (7:8:7=D3/8_G/8-G/8=A3/8D/4G/4A/4 D/ G/4A/4(3D/G/A/ D/=G/4B/4(3D/G/B/ (3D/G/B/(3D/G/B/ | %274
 (7:8:7C3/8=E/8-E/8G3/8C/4E/4G/4 C/ E/4G/4(3C/E/G/ C/F/4=A/4(3C/F/A/ (3C/F/A/(3C/F/A/ | %275
 (7:8:7B,3/8=D/8-D/8F3/8B,/4D/4F/4 B,/ D/4F/4(3B,/D/F/ B,/E/4G/4(3B,/E/G/ (3B,/E/G/(3B,/E/G/ | %276
 =A/=A,/_C/D/ =D/_D/=D/E/ F/G/_A/=A/ B/G/c/A/ | %277
 B/g/f/g/ e/=d/c/e/ d/[Q:1/4=85]=A/c/e/ d/[Q:1/4=84]_A/=A/c/ | %278
[M:2/4][Q:1/4=86] B/G/B/=d/ =A/_G/e/d/[Q:1/4=85][Q:1/4=84][Q:1/4=83][Q:1/4=82] | %279
[M:4/4] G/[Q:1/4=86]=d/_G/d/ =G/d/=A/d/ B/d/A/d/ B/d/_c/d/ | %280
 c/g/_g/=g/ =d/c/B/=A/ G/e/d/e/ c/B/A/F/ | E/B/=A/B/ cA G4 | [=DFA_c]4 z4 |[M:2/4] z2 [=D_G=G_c]2 | %284
[M:4/4] [E_G=Ac]4 z4 |[M:2/4] z2 [E_G=Ac]2 |[M:4/4] [D=EGB]8 | B4 z4 | %288
 A/F/_G/A/ B/c/d/e/ f>c d/e/f/_g/ | a/d'/b/d'/ a/_g/f/e/ f/a/g/b/ a/g/f/d/ | %290
 e2 f/e/d/B/ c>E F/G/A/B/ | c/e/d/e/ c/B/A/B/ c/A/B/G/ A2 | %292
 F/D/C/D/ A,/D/C/D/ _G/D/C/D/ B,/D/C/D/ | A/D/C/D/ A,/D/C/D/ B/D/C/D/ B,/D/C/D/ | %294
 F2 _G/F/E F>E D/E/F/G/ | F2 _G/F/E F>E D2 | F/D/C/D/ A,/D/C/D/ F/D/C/D/ _G/D/C/D/ | %297
 F/D/C/D/ _G/D/C/D/ F/D/A,/D/ G/E/B,/C/ | F/D/C/D/ A,/D/C/D/ _G/D/C/D/ B,/D/C/D/ | %299
 A/D/C/D/ A,/D/C/D/ B/D/C/D/ B,/D/C/D/ | =E/D/C/D/ A,/D/C/D/ E/D/C/D/ _G/D/C/D/ | %301
 =E/D/C/D/ _G/D/C/D/ A/D/A,/D/ G/_E/A,/C/ | =E/D/C/D/ A,/D/C/D/ _G/D/C/D/ =A,/D/C/D/ | %303
 A/D/C/D/ A,/D/C/D/ =A/D/C/D/ =A,/D/C/D/ | =E/D/C/D/ _G/_E/=E/G/ A/E/_E/=E/ =A/G/_A/=A/ | %305
[M:3/4] [=EG_c]=A/G/ _G/E/_E/D/ _C[=E=Gc] | [=E=Ac]_c/A/ G/_G/E/=D/ CC | %307
[M:4/4] (7:8:7=D3/8_G/8-G/8=A3/8D/4G/4A/4 D/ G/4A/4(3D/G/A/ D/=G/4B/4(3D/G/B/ (3D/G/B/(3D/G/B/[Q:1/4=86] | %308
 (7:8:7C3/8=E/8-E/8G3/8C/4E/4G/4 C/ E/4G/4(3C/E/G/ C/F/4=A/4(3C/F/A/ (3C/F/A/(3C/F/A/ | %309
 (7:8:7B,3/8=D/8-D/8F3/8B,/4D/4F/4 B,/ D/4F/4(3B,/D/F/ B,/E/4G/4(3B,/E/G/ (3B,/E/G/(3B,/E/G/ | %310
 =A/=A,/_C/D/ =D/_D/=D/E/ F/G/_A/=A/ B/G/c/A/ | %311
 B/g/f/g/ e/=d/c/e/ d/[Q:1/4=85]=A/c/e/ d/[Q:1/4=84]_A/=A/c/ | %312
[M:2/4][Q:1/4=86] B/G/B/=d/ =A/_G/e/d/[Q:1/4=85][Q:1/4=84][Q:1/4=83][Q:1/4=82] | %313
[M:4/4] G/[Q:1/4=86]=d/_G/d/ =G/d/=A/d/ B/d/A/d/ B/d/_c/d/ | %314
 c/g/_g/=g/ =d/c/B/=A/ G/e/d/e/ c/B/A/F/ | E/B/=A/B/ cA G4 | [=DFA_c]4 z4 |[M:2/4] z2 [=D_G=G_c]2 | %318
[M:4/4] [E_G=Ac]4 z4 |[M:2/4] z2 [E_G=Ac]2 |[M:4/4] [D=EGB]8 | B4 z4 | z8 | z8 | z8 | z8 | z8 | %327
 z8 | z8 | z8 | z8 | f8 | [Ac=e]2 [A_c_e]6- | [Ace]8 | [Ac=e]2 [A_c_e]6- |[Q:1/4=53] [Ace]8 | %336
[Q:1/4=130] [=EAd]8- | [EAd]8 | z8 | z8 | z [_GA][=EA][_EA] [DA][DA]/[=E_c]/- [Ec]/[_E=A]/[C=G] | %341
[M:7/8] [_GA][=E=A]/[_E_c][DA][E_A][EA]/ [Gc][=E=A] | %342
[M:4/4] z [_cd][=Ad][_Ad] [_Gd][Gd]/[=A=e]/- [Ae]/[_A_e]/[F=c] | %343
[M:7/8] [_cd][=Ad]/[_A=e][_G_e][Ad][Ad]/ [=A=c][_Ad] | %344
[M:4/4] z [_GA][=EA][_EA] [DA][DA]/[=E_c]/- [Ec]/[_E=A]/[C=G] | %345
[M:7/8] [_GA][=E=A]/[_E_c][DA][E_A][EA]/ [Gc][=E=A] | %346
[M:4/4] z [_cd][=Ad][_Ad] [_Gd][Gd]/[=A=e]/- [Ae]/[_A_e]/[F=c] | %347
[M:7/8] [_cd][=Ad]/[_A=e][_G_e][Ad][Ad]/ [=A=c][_Ad] |[M:4/4] A>E =E/DE/ _GGEC |[M:3/4] D6- | %350
[M:7/8] D-D-D- D3 z |[M:4/4] A>E =E/DE/ _GGEC | D8 | z8 | %354
 z [_GA][=EA][_EA] [DA][DA]/[=E_c]/- [Ec]/[_E=A]/[C=G] | %355
[M:7/8] [_GA][=E=A]/[_E_c][DA][E_A][EA]/ [Gc][=E=A] | %356
[M:4/4] z [_cd][=Ad][_Ad] [_Gd][Gd]/[=A=e]/- [Ae]/[_A_e]/[F=c] | %357
[M:7/8] [_cd][=Ad]/[_A=e][_G_e][Ad][Ad]/ [=A=c][_Ad] | %358
[M:4/4] z [_GA][=EA][_EA] [DA][DA]/[=E_c]/- [Ec]/[_E=A]/[C=G] | %359
[M:7/8] [_GA][=E=A]/[_E_c][DA][E_A][EA]/ [Gc][=E=A] | %360
[M:4/4] z [_cd][=Ad][_Ad] [_Gd][Gd]/[=A=e]/- [Ae]/[_A_e]/[F=c] | %361
[M:7/8] [_cd][=Ad]/[_A=e][_G_e][Ad][Ad]/ [=A=c][_Ad] |[M:4/4] A>E =E/DE/ _GGEC |[M:3/4] D6- | %364
[M:7/8] D-D-D- D3 z |[M:4/4] A>E =E/DE/ _GGEC | D8 | z8 | %368
[M:7/8] G/=D/=A,/F/C/[K:bass]G,/ E/B,/F,/_G,/ =G,/[K:treble]C/F/B/ | %369
[M:4/4] G/=D/=A,/F/ C/[K:bass]G,/E/B,/ F,/_G,/=G,/[K:treble]C/ F/B/_G/_D/ | %370
[M:7/8] G/=D/=A,/F/C/[K:bass]G,/ E/B,/F,/_G,/ =G,/[K:treble]C/F/B/ | %371
[M:4/4] G/=D/=A,/F/ C/[K:bass]G,/E/B,/ F,/_G,/=G,/[K:treble]C/ F/B/_G/_D/ | DE=E_G AD =A_A/G/ | %373
[M:7/8] G/=D/=A,/F/C/[K:bass]G,/ E/B,/F,/_G,/ =G,/[K:treble]C/F/B/ | %374
[M:4/4] G/=D/=A,/F/ C/[K:bass]G,/E/B,/ F,/_G,/=G,/[K:treble]C/ F/B/_G/_D/ | %375
[M:7/8] G/E/=A,/F/C/[K:bass]G,/ E/B,/F,/_G,/ =G,/[K:treble]C/F/B/ | %376
[M:4/4] G/=D/=A,/F/ C/[K:bass]G,/E/B,/ F,/_G,/=G,/[K:treble]C/ F/B/_G/_D/ | A>E =E/DE/ _GGEC | D8 | %379
 z8 | A>E =E/DE/ _GGEC | DE/=E/- E/_G/=G z4 | G=A/B/- B/_c/d z4[Q:1/4=90] | [=Ed]8 | d4 _c3 d/e/ | %385
 [=EA=e]8 | =e4 =d4 | [FA=d]4 _dGA_c | _c2 A2 [=E=A]4 | [CE_G=A]4 _A=DEG | z4 .=E2 z2 | %391
 A4 _G2 =E2 | [A,D=E]8 | [A,CE]8 | [E_GAd]8 | [E_GAc]6 G/A/B/c/ | [=Ed]8 | d4 _c3 d/e/ | [A_c=e]8 | %399
 =e4 =d4 | =d4 _dG z _c | _c2 A2 [=E=A]4 | [E_G=A]4 _A=DEG | z4 .=E2 z2 | A4 _G2 =E2 | [A,D=E]8 | %406
 E4 E/=E/F/_G/ A/B/_c/=c/ | [E_GAd]8 | [E_GAc]6- [EGAc]B/c/ |[Q:1/4=130] [=EAd]8- | [EAd]8 | z8 | %412
 z8 | z [_GA][=EA][_EA] [DA][DA]/[=E_c]/- [Ec]/[_E=A]/[C=G] | %414
[M:7/8] [_GA][=E=A]/[_E_c][DA][E_A][EA]/ [Gc][=E=A] | %415
[M:4/4] z [_cd][=Ad][_Ad] [_Gd][Gd]/[=A=e]/- [Ae]/[_A_e]/[F=c] | %416
[M:7/8] [_cd][=Ad]/[_A=e][_G_e][Ad][Ad]/ [=A=c][_Ad] | %417
[M:4/4] z [_GA][=EA][_EA] [DA][DA]/[=E_c]/- [Ec]/[_E=A]/[C=G] | %418
[M:7/8] [_GA][=E=A]/[_E_c][DA][E_A][EA]/ [Gc][=E=A] | %419
[M:4/4] z [_cd][=Ad][_Ad] [_Gd][Gd]/[=A=e]/- [Ae]/[_A_e]/[F=c] | %420
[M:7/8] [_cd][=Ad]/[_A=e][_G_e][Ad][Ad]/ [=A=c][_Ad] |[M:4/4] A>E =E/DE/ _GGEC |[M:3/4] D6- | %423
[M:7/8] D-D-D- D3 z |[M:4/4] A>E =E/DE/ _GGEC | D8 | z8 | %427
 z [_GA][=EA][_EA] [DA][DA]/[=E_c]/- [Ec]/[_E=A]/[C=G] | %428
[M:7/8] [_GA][=E=A]/[_E_c][DA][E_A][EA]/ [Gc][=E=A] | %429
[M:4/4] z [_cd][=Ad][_Ad] [_Gd][Gd]/[=A=e]/- [Ae]/[_A_e]/[F=c] | %430
[M:7/8] [_cd][=Ad]/[_A=e][_G_e][Ad][Ad]/ [=A=c][_Ad] | %431
[M:4/4] z [_GA][=EA][_EA] [DA][DA]/[=E_c]/- [Ec]/[_E=A]/[C=G] | %432
[M:7/8] [_GA][=E=A]/[_E_c][DA][E_A][EA]/ [Gc][=E=A] | %433
[M:4/4] z [_cd][=Ad][_Ad] [_Gd][Gd]/[=A=e]/- [Ae]/[_A_e]/[F=c] | %434
[M:7/8] [_cd][=Ad]/[_A=e][_G_e][Ad][Ad]/ [=A=c][_Ad] |[M:4/4] A>E =E/DE/ _GGEC |[M:3/4] D6- | %437
[M:7/8] D-D-D- D3 z |[M:4/4] A>E =E/DE/ _GGEC | D8 | z8 | %441
[M:7/8] G/=D/=A,/F/C/[K:bass]G,/ E/B,/F,/_G,/ =G,/[K:treble]C/F/B/ | %442
[M:4/4] G/=D/=A,/F/ C/[K:bass]G,/E/B,/ F,/_G,/=G,/[K:treble]C/ F/B/_G/_D/ | %443
[M:7/8] G/=D/=A,/F/C/[K:bass]G,/ E/B,/F,/_G,/ =G,/[K:treble]C/F/B/ | %444
[M:4/4] G/=D/=A,/F/ C/[K:bass]G,/E/B,/ F,/_G,/=G,/[K:treble]C/ F/B/_G/_D/ | DE=E_G AD =A_A/G/ | %446
[M:7/8] G/=D/=A,/F/C/[K:bass]G,/ E/B,/F,/_G,/ =G,/[K:treble]C/F/B/ | %447
[M:4/4] G/=D/=A,/F/ C/[K:bass]G,/E/B,/ F,/_G,/=G,/[K:treble]C/ F/B/_G/_D/ | %448
[M:7/8] G/E/=A,/F/C/[K:bass]G,/ E/B,/F,/_G,/ =G,/[K:treble]C/F/B/ | %449
[M:4/4] G/=D/=A,/F/ C/[K:bass]G,/E/B,/ F,/_G,/=G,/[K:treble]C/ F/B/_G/_D/ | A>E =E/DE/ _GGEC | D8 | %452
 z8 | A>E =E/DE/ _GGEC | DE/=E/- E/_G/=G z4 | G=A/B/- B/_c/d z4[Q:1/4=90] | [=Ed]8 | d4 _c3 d/e/ | %458
 [=EA=e]8 | =e4 =d4 | [FA=d]4 _dGA_c | _c2 A2 [=E=A]4 | [CE_G=A]4 _A=DEG | z4 .=E2 z2 | %464
 A4 _G2 =E2 | [A,D=E]8 | [A,CE]8 | [E_GAd]8 | [E_GAc]6 G/A/B/c/ | [=Ed]8 | d4 _c3 d/e/ | [A_c=e]8 | %472
 =e4 =d4 | =d4 _dG z _c | _c2 A2 [=E=A]4 | [E_G=A]4 _A=DEG | z4 .=E2 z2 | A4 _G2 =E2 | [A,D=E]8 | %479
 E4 E/=E/F/_G/ A/B/_c/=c/ | [E_GAd]8 | [E_GAc]6- [EGAc]B/c/ |[Q:1/4=130] [=EAd]8- | [EAd]8 | z8 | %485
 z8 | z [_GA][=EA][_EA] [DA][DA]/[=E_c]/- [Ec]/[_E=A]/[C=G] | %487
[M:7/8] [_GA][=E=A]/[_E_c][DA][E_A][EA]/ [Gc][=E=A] | %488
[M:4/4] z [_cd][=Ad][_Ad] [_Gd][Gd]/[=A=e]/- [Ae]/[_A_e]/[F=c] | %489
[M:7/8] [_cd][=Ad]/[_A=e][_G_e][Ad][Ad]/ [=A=c][_Ad] | %490
[M:4/4] z [_GA][=EA][_EA] [DA][DA]/[=E_c]/- [Ec]/[_E=A]/[C=G] | %491
[M:7/8] [_GA][=E=A]/[_E_c][DA][E_A][EA]/ [Gc][=E=A] | %492
[M:4/4] z [_cd][=Ad][_Ad] [_Gd][Gd]/[=A=e]/- [Ae]/[_A_e]/[F=c] | %493
[M:7/8] [_cd][=Ad]/[_A=e][_G_e][Ad][Ad]/ [=A=c][_Ad] |[M:4/4] A>E =E/DE/ _GGEC |[M:3/4] D6- | %496
[M:7/8] D-D-D- D3 z |[M:4/4] A>E =E/DE/ _GGEC | D8 |] %499
V:2
 x8 | x8 | x8 | x8 | x8 | x8 | x8 | x8 | x8 | x8 | x8 | x8 | x8 | x8 | x8 | x8 | x8 | %17
 [B,E_G]4 [DF]2- [DFc]2 | x8 | z4 [df]4 | z4 [=d_g=a]4 | [egb]8 | z4 [f=ac']4 | [egb]8 | %24
 z4 [ceg]4 | [=d_g=a]8 | z4 [egb]4 | [=d_g=a]8 | x8 | x8 | x8 | x8 | x8 | x8 | x8 | x8 | x8 | x8 | %38
 x8 | x8 | x8 | x8 | x8 | x8 | x8 | x8 | x8 | x8 | x8 | x8 | x8 | x8 | x8 | x8 | x8 | x8 | x8 | %57
 x8 | x8 | x8 | x8 | x8 | x8 | x8 | x8 | x8 | x8 | x8 | x8 | x8 | x8 | x8 | x8 | x8 | x8 | x8 | %76
 x8 | x8 | x8 | [B,E_G]4 [DF]2- [DFc]2 | x8 | z4 [df]4 | z4 [=d_g=a]4 | [egb]8 | z4 [f=ac']4 | %85
 [egb]8 | z4 [ceg]4 | [=d_g=a]8 | z4 [egb]4 | [=d_g=a]8 | x8 | x8 | x8 | x8 | x8 | x8 | x8 | x8 | %98
 x8 | x8 | x8 | x8 | x8 | x8 | x8 | x8 | x8 | x8 | x8 | x8 | x8 | x8 | x8 | x8 | x8 | x8 | x8 | %117
 x8 | x8 | x8 | x8 | x8 | x8 | x8 | x8 | x8 | x8 | x8 | x8 | x8 | x8 | x8 | x8 | x8 | x8 | x8 | %136
 x8 | x8 | x8 | x8 | x8 | [B,E_G]4 [DF]2- [DFc]2 | x8 | z4 [df]4 | z4 [=d_g=a]4 | [egb]8 | %146
 z4 [f=ac']4 | [egb]8 | z4 [ceg]4 | [=d_g=a]8 | z4 [egb]4 | [=d_g=a]8 | x8 | x8 | x8 | x8 | x8 | %157
 x8 | x8 | x8 | x8 | x8 | x8 | x8 | x8 | x8 | x8 | x8 | x8 | x8 | x8 | x8 | x8 | x8 | x8 | x8 | %176
 x8 | x8 | x8 | x8 | x8 | x8 | x8 | x8 | x8 | x8 | x8 | x8 | x8 | x8 | x8 | x8 | x8 | x8 | x8 | %195
 x8 | x8 | x8 | x8 | x8 | x8 | x8 | x8 | x8 | x8 |[M:3/4] x6 |[M:2/2] x8 | x8 | x8 | x8 | x8 | x8 | %212
 x8 | x8 | x8 | x8 | x8 | x8 | x8 | x8 | x8 | x8 | x8 | x8 | x8 | x8 | x8 | x8 | x8 | x8 | x8 | %231
 x8 | x8 | x8 | x8 | x8 | x8 | x8 | x8 | x8 | x8 | x8 | x8 | x8 | x8 | x8 | x8 | x8 | x8 | x8 | %250
 x8 |[M:3/4] x6 |[M:4/4] x8 | x8 | x8 | x8 | x8 | x8 | x8 | x8 | x8 | x8 | x8 | x8 | x8 | x8 | x8 | %267
 x8 | x8 | x8 | x8 |[M:3/4] x6 | x6 |[M:4/4] x8 | x8 | x8 | x8 | x8 |[M:2/4] x4 |[M:4/4] x8 | x8 | %281
 x8 | x8 |[M:2/4] x4 |[M:4/4] x8 |[M:2/4] x4 |[M:4/4] x8 | [E_G]4- [EGc]4 | x8 | x8 | x8 | x8 | %292
 x8 | x8 | x8 | x8 | x8 | x8 | x8 | x8 | x8 | x8 | x8 | x8 | x8 |[M:3/4] x6 | x6 |[M:4/4] x8 | x8 | %309
 x8 | x8 | x8 |[M:2/4] x4 |[M:4/4] x8 | x8 | x8 | x8 |[M:2/4] x4 |[M:4/4] x8 |[M:2/4] x4 | %320
[M:4/4] x8 | [E_G]4- [EGc]4 | x8 | x8 | x8 | x8 | x8 | x8 | x8 | x8 | c8- | c8 | x8 | x8 | x8 | %335
 x8 | x8 | x8 | x8 | x8 | x8 |[M:7/8] x7 |[M:4/4] x8 |[M:7/8] x7 |[M:4/4] x8 |[M:7/8] x7 | %346
[M:4/4] x8 |[M:7/8] x7 |[M:4/4] x8 |[M:3/4] x6 |[M:7/8] x7 |[M:4/4] x8 | x8 | x8 | x8 |[M:7/8] x7 | %356
[M:4/4] x8 |[M:7/8] x7 |[M:4/4] x8 |[M:7/8] x7 |[M:4/4] x8 |[M:7/8] x7 |[M:4/4] x8 |[M:3/4] x6 | %364
[M:7/8] x7 |[M:4/4] x8 | x8 | x8 |[M:7/8] x5/2[K:bass] x3[K:treble] x3/2 | %369
[M:4/4] x5/2[K:bass] x3[K:treble] x5/2 |[M:7/8] x5/2[K:bass] x3[K:treble] x3/2 | %371
[M:4/4] x5/2[K:bass] x3[K:treble] x5/2 | x8 |[M:7/8] x5/2[K:bass] x3[K:treble] x3/2 | %374
[M:4/4] x5/2[K:bass] x3[K:treble] x5/2 |[M:7/8] x5/2[K:bass] x3[K:treble] x3/2 | %376
[M:4/4] x5/2[K:bass] x3[K:treble] x5/2 | x8 | x8 | x8 | x8 | x8 | x8 | x8 | [E_G]8 | x8 | [_G=A]8 | %387
 x8 | _G4 z4 | x8 | [A,D_G]4 [A,_C]-[A,-C-D][A,-C-=E][A,CA] | [=A,D]8 | x8 | x8 | x8 | x8 | x8 | %397
 [E_G]8 | x8 | [_G=A]8 | z4 z2 A2 | _G4 z4 | x8 | [D_G]4 _C-[C-D][C-=E][CA] | [=A,D]8 | x8 | %406
 [A,C]8 | x8 | x8 | x8 | x8 | x8 | x8 | x8 |[M:7/8] x7 |[M:4/4] x8 |[M:7/8] x7 |[M:4/4] x8 | %418
[M:7/8] x7 |[M:4/4] x8 |[M:7/8] x7 |[M:4/4] x8 |[M:3/4] x6 |[M:7/8] x7 |[M:4/4] x8 | x8 | x8 | x8 | %428
[M:7/8] x7 |[M:4/4] x8 |[M:7/8] x7 |[M:4/4] x8 |[M:7/8] x7 |[M:4/4] x8 |[M:7/8] x7 |[M:4/4] x8 | %436
[M:3/4] x6 |[M:7/8] x7 |[M:4/4] x8 | x8 | x8 |[M:7/8] x5/2[K:bass] x3[K:treble] x3/2 | %442
[M:4/4] x5/2[K:bass] x3[K:treble] x5/2 |[M:7/8] x5/2[K:bass] x3[K:treble] x3/2 | %444
[M:4/4] x5/2[K:bass] x3[K:treble] x5/2 | x8 |[M:7/8] x5/2[K:bass] x3[K:treble] x3/2 | %447
[M:4/4] x5/2[K:bass] x3[K:treble] x5/2 |[M:7/8] x5/2[K:bass] x3[K:treble] x3/2 | %449
[M:4/4] x5/2[K:bass] x3[K:treble] x5/2 | x8 | x8 | x8 | x8 | x8 | x8 | x8 | [E_G]8 | x8 | [_G=A]8 | %460
 x8 | _G4 z4 | x8 | [A,D_G]4 [A,_C]-[A,-C-D][A,-C-=E][A,CA] | [=A,D]8 | x8 | x8 | x8 | x8 | x8 | %470
 [E_G]8 | x8 | [_G=A]8 | z4 z2 A2 | _G4 z4 | x8 | [D_G]4 _C-[C-D][C-=E][CA] | [=A,D]8 | x8 | %479
 [A,C]8 | x8 | x8 | x8 | x8 | x8 | x8 | x8 |[M:7/8] x7 |[M:4/4] x8 |[M:7/8] x7 |[M:4/4] x8 | %491
[M:7/8] x7 |[M:4/4] x8 |[M:7/8] x7 |[M:4/4] x8 |[M:3/4] x6 |[M:7/8] x7 |[M:4/4] x8 | x8 |] %499
V:3
 x8 | x8 | x8 | x8 | x8 | x8 | x8 | x8 | x8 | x8 | x8 | x8 | x8 | x8 | x8 | x8 | x8 | x8 | x8 | %19
 x8 | x8 | x8 | x8 | x8 | x8 | x8 | x8 | x8 | x8 | x8 | x8 | x8 | x8 | x8 | x8 | x8 | x8 | x8 | %38
 x8 | x8 | x8 | x8 | x8 | x8 | x8 | x8 | x8 | x8 | x8 | x8 | x8 | x8 | x8 | x8 | x8 | x8 | x8 | %57
 x8 | x8 | x8 | x8 | x8 | x8 | x8 | x8 | x8 | x8 | x8 | x8 | x8 | x8 | x8 | x8 | x8 | x8 | x8 | %76
 x8 | x8 | x8 | x8 | x8 | x8 | x8 | x8 | x8 | x8 | x8 | x8 | x8 | x8 | x8 | x8 | x8 | x8 | x8 | %95
 x8 | x8 | x8 | x8 | x8 | x8 | x8 | x8 | x8 | x8 | x8 | x8 | x8 | x8 | x8 | x8 | x8 | x8 | x8 | %114
 x8 | x8 | x8 | x8 | x8 | x8 | x8 | x8 | x8 | x8 | x8 | x8 | x8 | x8 | x8 | x8 | x8 | x8 | x8 | %133
 x8 | x8 | x8 | x8 | x8 | x8 | x8 | x8 | x8 | x8 | x8 | x8 | x8 | x8 | x8 | x8 | x8 | x8 | x8 | %152
 x8 | x8 | x8 | x8 | x8 | x8 | x8 | x8 | x8 | x8 | x8 | x8 | x8 | x8 | x8 | x8 | x8 | x8 | x8 | %171
 x8 | x8 | x8 | x8 | x8 | x8 | x8 | x8 | x8 | x8 | x8 | x8 | x8 | x8 | x8 | x8 | x8 | x8 | x8 | %190
 x8 | x8 | x8 | x8 | x8 | x8 | x8 | x8 | x8 | x8 | x8 | x8 | x8 | x8 | x8 |[M:3/4] x6 |[M:2/2] x8 | %207
 x8 | x8 | x8 | x8 | x8 | x8 | x8 | x8 | x8 | x8 | x8 | x8 | x8 | x8 | x8 | x8 | x8 | x8 | x8 | %226
 x8 | x8 | x8 | x8 | x8 | x8 | x8 | x8 | x8 | x8 | x8 | x8 | x8 | x8 | x8 | x8 | x8 | x8 | x8 | %245
 x8 | x8 | x8 | x8 | x8 | x8 |[M:3/4] x6 |[M:4/4] x8 | x8 | x8 | x8 | x8 | x8 | x8 | x8 | x8 | x8 | %262
 x8 | x8 | x8 | x8 | x8 | x8 | x8 | x8 | x8 |[M:3/4] x6 | x6 |[M:4/4] x8 | x8 | x8 | x8 | x8 | %278
[M:2/4] x4 |[M:4/4] x8 | x8 | x8 | x8 |[M:2/4] x4 |[M:4/4] x8 |[M:2/4] x4 |[M:4/4] x8 | x8 | x8 | %289
 x8 | x8 | x8 | x8 | x8 | x8 | x8 | x8 | x8 | x8 | x8 | x8 | x8 | x8 | x8 | x8 |[M:3/4] x6 | x6 | %307
[M:4/4] x8 | x8 | x8 | x8 | x8 |[M:2/4] x4 |[M:4/4] x8 | x8 | x8 | x8 |[M:2/4] x4 |[M:4/4] x8 | %319
[M:2/4] x4 |[M:4/4] x8 | x8 | x8 | x8 | x8 | x8 | x8 | x8 | x8 | G8- | G8- | G8 | x8 | x8 | x8 | %335
 x8 | x8 | x8 | x8 | x8 | x8 |[M:7/8] x7 |[M:4/4] x8 |[M:7/8] x7 |[M:4/4] x8 |[M:7/8] x7 | %346
[M:4/4] x8 |[M:7/8] x7 |[M:4/4] x8 |[M:3/4] x6 |[M:7/8] x7 |[M:4/4] x8 | x8 | x8 | x8 |[M:7/8] x7 | %356
[M:4/4] x8 |[M:7/8] x7 |[M:4/4] x8 |[M:7/8] x7 |[M:4/4] x8 |[M:7/8] x7 |[M:4/4] x8 |[M:3/4] x6 | %364
[M:7/8] x7 |[M:4/4] x8 | x8 | x8 |[M:7/8] x5/2[K:bass] x3[K:treble] x3/2 | %369
[M:4/4] x5/2[K:bass] x3[K:treble] x5/2 |[M:7/8] x5/2[K:bass] x3[K:treble] x3/2 | %371
[M:4/4] x5/2[K:bass] x3[K:treble] x5/2 | x8 |[M:7/8] x5/2[K:bass] x3[K:treble] x3/2 | %374
[M:4/4] x5/2[K:bass] x3[K:treble] x5/2 |[M:7/8] x5/2[K:bass] x3[K:treble] x3/2 | %376
[M:4/4] x5/2[K:bass] x3[K:treble] x5/2 | x8 | x8 | x8 | x8 | x8 | x8 | x8 | x8 | x8 | x8 | x8 | %388
 x8 | x8 | x8 | x8 | x8 | x8 | x8 | x8 | x8 | x8 | x8 | x8 | [F-A]6 F2 | x8 | x8 | x8 | x8 | x8 | %406
 x8 | x8 | x8 | x8 | x8 | x8 | x8 | x8 |[M:7/8] x7 |[M:4/4] x8 |[M:7/8] x7 |[M:4/4] x8 | %418
[M:7/8] x7 |[M:4/4] x8 |[M:7/8] x7 |[M:4/4] x8 |[M:3/4] x6 |[M:7/8] x7 |[M:4/4] x8 | x8 | x8 | x8 | %428
[M:7/8] x7 |[M:4/4] x8 |[M:7/8] x7 |[M:4/4] x8 |[M:7/8] x7 |[M:4/4] x8 |[M:7/8] x7 |[M:4/4] x8 | %436
[M:3/4] x6 |[M:7/8] x7 |[M:4/4] x8 | x8 | x8 |[M:7/8] x5/2[K:bass] x3[K:treble] x3/2 | %442
[M:4/4] x5/2[K:bass] x3[K:treble] x5/2 |[M:7/8] x5/2[K:bass] x3[K:treble] x3/2 | %444
[M:4/4] x5/2[K:bass] x3[K:treble] x5/2 | x8 |[M:7/8] x5/2[K:bass] x3[K:treble] x3/2 | %447
[M:4/4] x5/2[K:bass] x3[K:treble] x5/2 |[M:7/8] x5/2[K:bass] x3[K:treble] x3/2 | %449
[M:4/4] x5/2[K:bass] x3[K:treble] x5/2 | x8 | x8 | x8 | x8 | x8 | x8 | x8 | x8 | x8 | x8 | x8 | %461
 x8 | x8 | x8 | x8 | x8 | x8 | x8 | x8 | x8 | x8 | x8 | x8 | [F-A]6 F2 | x8 | x8 | x8 | x8 | x8 | %479
 x8 | x8 | x8 | x8 | x8 | x8 | x8 | x8 |[M:7/8] x7 |[M:4/4] x8 |[M:7/8] x7 |[M:4/4] x8 | %491
[M:7/8] x7 |[M:4/4] x8 |[M:7/8] x7 |[M:4/4] x8 |[M:3/4] x6 |[M:7/8] x7 |[M:4/4] x8 | x8 |] %499
V:4
 C,,8- | C,,8- | C,,6 (3C,,C,,C,, | C,,6- (3C,,C,,C,, | C,,8- | C,,8- | C,,6 (3C,,C,,C,, | %7
 C,,6- (3C,,C,,C,, | C,,8- | C,,8- | C,,6 (3C,,C,,C,, | C,,6- (3C,,C,,C,, | C,,8- | C,,8 | %14
 C,,6 (3C,,C,,C,, | C,,2 C,,2 C,,2 C,,2 | C,4 B,,4 | _G,,4 F,,4 | C,,4 =D,,4 | E,,4 F,,4 | %20
 =D,,4 D,,4 | =D,,6 (3D,,D,,D,, | =D,,4 D,,4 | =D,,6 (3D,,D,,D,, | C,,4 C,,4 | C,,6 (3C,,C,,C,, | %26
 C,,4 C,,4 | C,,8 |[K:treble] G8 | A8 | G8 | G8 |[K:bass] E,4 G,4 | F,4 E,4 | =D,4 E,2 F,2 | E,8 | %36
[K:treble] G8 | A8 | G8 | G2 G,2 C2[K:bass] B,2 | A,2 G,2 F,2 E,2 | =D,4 G,4 | z4 C4- | C8 | %44
 C,2 C,6- | C,8 | z4 C4- | C8 | .C,4 C4 | C4 _C4 | F,8 | G,8 | A,4 F,4 | =D,4 G,,4 | z4 C4- | C8 | %56
 .C,4 C4 | C4 _C4 | z4 C4- | C8 | .C,4 C4 | C4 _C4 | C,,8- | C,,8- | C,,6 (3C,,C,,C,, | %65
 C,,6- (3C,,C,,C,, | C,,8- | C,,8- | C,,6 (3C,,C,,C,, | C,,6- (3C,,C,,C,, | C,,8- | C,,8- | %72
 C,,6 (3C,,C,,C,, | C,,6- (3C,,C,,C,, | C,,8- | C,,8 | C,,6 (3C,,C,,C,, | C,,2 C,,2 C,,2 C,,2 | %78
 C,4 B,,4 | _G,,4 F,,4 | C,,4 =D,,4 | E,,4 F,,4 | =D,,4 D,,4 | =D,,6 (3D,,D,,D,, | =D,,4 D,,4 | %85
 =D,,6 (3D,,D,,D,, | C,,4 C,,4 | C,,6 (3C,,C,,C,, | C,,4 C,,4 | C,,8 |[K:treble] G8 | A8 | G8 | %93
 G8 |[K:bass] E,4 G,4 | F,4 E,4 | =D,4 E,2 F,2 | E,8 |[K:treble] G8 | A8 | G8 | %101
 G2 G,2 C2[K:bass] B,2 | A,2 G,2 F,2 E,2 | =D,4 G,4 | z4 C4- | C8 | C,2 C,6- | C,8 | z4 C4- | C8 | %110
 .C,4 C4 | C4 _C4 | F,8 | G,8 | A,4 F,4 | =D,4 G,,4 | z4 C4- | C8 | .C,4 C4 | C4 _C4 | z4 C4- | %121
 C8 | .C,4 C4 | C4 _C4 | C,,8- | C,,8- | C,,6 (3C,,C,,C,, | C,,6- (3C,,C,,C,, | C,,8- | C,,8- | %130
 C,,6 (3C,,C,,C,, | C,,6- (3C,,C,,C,, | C,,8- | C,,8- | C,,6 (3C,,C,,C,, | C,,6- (3C,,C,,C,, | %136
 C,,8- | C,,8 | C,,6 (3C,,C,,C,, | C,,2 C,,2 C,,2 C,,2 | C,4 B,,4 | _G,,4 F,,4 | C,,4 =D,,4 | %143
 E,,4 F,,4 | =D,,4 D,,4 | =D,,6 (3D,,D,,D,, | =D,,4 D,,4 | =D,,6 (3D,,D,,D,, | C,,4 C,,4 | %149
 C,,6 (3C,,C,,C,, | C,,4 C,,4 | C,,8 | D,2 D,2 D,2 D,2 | D,2 D,2 D,C, _C,2 | D,2 D,2 D,2 D,2 | %155
 D,2 D,2 D,C, _C,2 | D,2 D,2 D,2 D,2 | D,2 D,2 D,C, _C,2 | D,2 D,2 D,2 D,2 | D,2 D,2 D,C, _C,2 | %160
 D,2 A,,2 D,2 A,,2 | D,2 A,,2 D,A,, _C,2 | D,2 A,,2 D,2 A,,2 | D,2 A,,2 D,A,, _C,2 | %164
 D,2 A,,2 D,2 A,,2 | D,2 A,,2 D,A,, _C,2 | D,2 A,,2 D,2 A,,2 | D,2 A,,2 D,A,, _C,2 | %168
 z4[K:treble] D4 | z2 D2 C4 | z4 D4 | z2 D2 C4 | z4[K:bass] =E,4 | z2 =E,2 _E,4 | z4 =E,4 | %175
 z2 =E,2 _E,4 | D,2 A,,2 D,2 A,,2 | D,2 A,,2 D,A,, _C,2 | D,2 A,,2 D,2 A,,2 | D,2 A,,2 D,A,, _C,2 | %180
 D,2 A,,2 D,2 A,,2 | D,2 A,,2 D,A,, _C,2 | D,2 A,,2 D,2 A,,2 | D,2 A,,2 D,A,, _C,2 | %184
 z4[K:treble] D4 | z2 D2 C4 | z4 D4 | z2 D2 C4 | z4[K:bass] =E,4 | z2 =E,2 _E,4 | z4 =E,4 | %191
 z2 =E,2 _E,4 | D4 C4 | B,4 A,4 | G,4 A,4 | B,8 |[K:treble] F2 E2 D2 C2 | _C2[K:bass] =C2 =D2 G,2 | %198
 C2 C,2 z4 | G,2 .G,6 | z8 | z8 | ED_CB, =A,_G,E,_A, | A,>A,_G,A,/=A,/ _C/_C,/D,/=D,/=E,C, | %204
 A,,_G,,=E,,E, .=D,4 |[M:3/4] B,,2 A,,4 |[M:2/2] D,2 A,,2 D,2 A,,2 | D,2 A,,2 D,A,, _C,2 | %208
 D,2 A,,2 D,2 A,,2 | D,2 A,,2 D,A,, _C,2 | D,2 A,,2 D,2 A,,2 | D,2 A,,2 D,A,, _C,2 | %212
 D,2 A,,2 D,2 A,,2 | D,2 A,,2 D,A,, _C,2 | z4[K:treble] D4 | z2 D2 C4 | z4 D4 | z2 D2 C4 | %218
 z4[K:bass] =E,4 | z2 =E,2 _E,4 | z4 =E,4 | z2 =E,2 _E,4 | D,2 A,,2 D,2 A,,2 | %223
 D,2 A,,2 D,A,, _C,2 | D,2 A,,2 D,2 A,,2 | D,2 A,,2 D,A,, _C,2 | D,2 A,,2 D,2 A,,2 | %227
 D,2 A,,2 D,A,, _C,2 | D,2 A,,2 D,2 A,,2 | D,2 A,,2 D,A,, _C,2 | z4[K:treble] D4 | z2 D2 C4 | %232
 z4 D4 | z2 D2 C4 | z4[K:bass] =E,4 | z2 =E,2 _E,4 | z4 =E,4 | z2 =E,2 _E,4 | D4 C4 | B,4 A,4 | %240
 G,4 A,4 | B,8 |[K:treble] F2 E2 D2 C2 | _C2[K:bass] =C2 =D2 G,2 | C2 C,2 z4 | G,2 .G,6 | z8 | z8 | %248
 ED_CB, =A,_G,E,_A, | A,>A,_G,A,/=A,/ _C/_C,/D,/=D,/=E,C, | A,,_G,,=E,,E, .=D,4 | %251
[M:3/4] B,,2 A,,4 |[M:4/4] =D,8- | D,8 | A,8- | A,8 | C,/A,,/B,,/C,/ D,/E,/F,/G,/ A,2 z2 | %257
 z/ E,/F,/G,/ A,/B,/[K:treble]C/D/ EDC[K:bass]A, | A,8- | A,8 | A,2 B,/A,/_G, A,2 z2 | %261
 A,2 B,/A,/_G, A,2 z2 | D,,E,,F,,D,, A,,F,, B,,A,,/_G,,/ | A,,F,,E,,_G,, F,,D,,E,,C,, | %264
 D,,4 D,C,B,,C, | D,8 | D,E,=E,_G, A,E, =A,_A,/G,/ | A,=E,_E,_G, =E,D,C,_E, | D,4- D,C,=A,,C, | %269
 D,8 | D,2 E,2 =E,2 _G,2 |[M:3/4] =E,2 z2 z =E,, | =A,,2 z2 z A,, | %273
[M:4/4] =D,C,B,,=A,, G,,2 A,,B,, | C,2 =D,=E, F,C,F,_E, | =D,C,B,,A,, G,,E,,B,,_D, | %276
 =A,,4 z/[K:treble] =D/C/D/ B,/D/[K:bass]=A,/D/ | %277
 G,_C=C[K:treble]E =D/_D/C/B,/[K:bass] =A,/=D,/_G,/A,/ |[M:2/4] G,=D, _G,=A, | %279
[M:4/4] G,3 _G, F,=E,_E,=D, | C,2 =D,2 E,2 F,2 | G,E,=D,_G, =G,4 | =D,,4 z4 |[M:2/4] z2 =D,,2 | %284
[M:4/4] E,,4 z4 |[M:2/4] z2 E,,2 |[M:4/4] D,,8 | A,,8 | A,8- | A,8 | %290
 C,/A,,/B,,/C,/ D,/E,/F,/G,/ A,2 z2 | z/ E,/F,/G,/ A,/B,/[K:treble]C/D/ EDC[K:bass]A, | A,8- | %293
 A,8 | A,2 B,/A,/_G, A,2 z2 | A,2 B,/A,/_G, A,2 z2 | D,,E,,F,,D,, A,,F,, B,,A,,/_G,,/ | %297
 A,,F,,E,,_G,, F,,D,,E,,C,, | D,,4 D,C,B,,C, | D,8 | D,E,=E,_G, A,E, =A,_A,/G,/ | %301
 A,=E,_E,_G, =E,D,C,_E, | D,4- D,C,=A,,C, | D,8 | D,2 E,2 =E,2 _G,2 |[M:3/4] z6 | z6 |[M:4/4] z8 | %308
 z8 | z8 | z8 | z8 |[M:2/4] z4 |[M:4/4] z8 | z8 | z8 | z8 |[M:2/4] z4 |[M:4/4] z8 |[M:2/4] z4 | %320
[M:4/4] z8 | z8 | z8 | z8 | z8 | z8 | z8 | z8 | =D8- | D8- | D8- | D8 | F,,2 F,,6- | F,,8 | %334
 F,,2 F,,6- | F,,8 | D,E,/=E,/- E,/_E,/D, E,/=E,_E,/ D,E, | D,E,/=E,/- E,/_E,/D, E,/=E,_E,/ D,E, | %338
 D,E,/=E,/- E,/_E,/D, E,/=E,_E,/ D,E, | D,E,/=E,/- E,/_E,/D, E,/=E,_E,/ D,E, | D,D,D,D, D,D,D,D, | %341
[M:7/8] D,D,D, D,D, D,D, |[M:4/4] _G,,G,,G,,G,, G,,G,,G,,G,, |[M:7/8] _G,,G,,G,, G,,G,, =E,_E, | %344
[M:4/4] D,D,D,D, D,D,D,D, |[M:7/8] D,D,D, D,D, D,D, |[M:4/4] _G,,G,,G,,G,, G,,G,,G,,G,, | %347
[M:7/8] _G,,G,,G,, G,,G,, =E,_E, |[M:4/4] A,,2 =A,,2 _C,2 =C,2 | %349
[M:3/4] D,E,/=E,/- E,/_G,/=G, _G,/E,_E,/ |[M:7/8] D,E,/=E,_G,/ =G,_G, E,_E, | %351
[M:4/4] A,,2 =A,,2 _C,2 =C,2 | D,E,/=E,/- E,/_E,/D, E,/=E,_E,/ D,E, | %353
 D,E,/=E,/- E,/_E,/D, E,/=E,_E,/ D,E, | D,D,D,D, D,D,D,D, |[M:7/8] D,D,D, D,D, D,D, | %356
[M:4/4] _G,,G,,G,,G,, G,,G,,G,,G,, |[M:7/8] _G,,G,,G,, G,,G,, =E,_E, |[M:4/4] D,D,D,D, D,D,D,D, | %359
[M:7/8] D,D,D, D,D, D,D, |[M:4/4] _G,,G,,G,,G,, G,,G,,G,,G,, |[M:7/8] _G,,G,,G,, G,,G,, =E,_E, | %362
[M:4/4] A,,2 =A,,2 _C,2 =C,2 |[M:3/4] D,E,/=E,/- E,/_G,/=G, _G,/E,_E,/ | %364
[M:7/8] D,E,/=E,_G,/ =G,_G, E,_E, |[M:4/4] A,,2 =A,,2 _C,2 =C,2 | %366
 D,E,/=E,/- E,/_E,/D, E,/=E,_E,/ D,E, | D,E,/=E,/- E,/_E,/D, E,/=E,_E,/ D,E, | %368
[M:7/8] C,3/2C,3/2 C,2 D,_C, |[M:4/4] C,>C,- C,C,- C,F,,B,,E, |[M:7/8] C,3/2C,3/2 C,2 D,_C, | %371
[M:4/4] C,>C,- C,C,- C,F,,B,,E, | DC_CB, A,G, _G,=E,/_E,/ |[M:7/8] C,3/2C,3/2 C,2 D,_C, | %374
[M:4/4] C,>C,- C,C,- C,F,,B,,E, |[M:7/8] C,3/2C,3/2 C,2 D,_C, |[M:4/4] C,>C,- C,C,- C,F,,B,,E, | %377
 A,,2 =A,,2 _C,2 =C,2 | D,E,/=E,/- E,/_E,/D, E,/=E,_E,/ D,E, | %379
 D,E,/=E,/- E,/_E,/D, E,/=E,_E,/ D,E, | A,,2 =A,,2 _C,2 =C,2 | D,E,/=E,/- E,/_G,/=G, z4 | %382
 G,,=A,,/B,,/- B,,/_C,/D, z4 | D,6- D,D, | E,2 E,4- E,E, | =E,6- E,E, | =D,2 D,4- D,D, | %387
 _C,6- C,D, | _G,2 G,4- G,=E, | E,6- E,C, | D,2 D,4- D,_C, | =A,,6- A,,A,, | A,,2 A,,4- A,,A,, | %393
 A,,6- A,,A,, | _G,,2 G,,4- G,,G,, | _G,,6- G,,G,, | D,6- D,D, | E,2 E,4- E,E, | =E,6- E,E, | %399
 =D,2 D,4- D,D, | _C,6- C,D, | _G,2 G,4- G,=E, | E,6- E,C, | D,2 D,4- D,_C, | =A,,6- A,,A,, | %405
 A,,2 A,,4- A,,A,, | A,,6- A,,A,, | _G,,2 G,,4- G,,G,, | _G,,8 | %409
 D,E,/=E,/- E,/_E,/D, E,/=E,_E,/ D,E, | D,E,/=E,/- E,/_E,/D, E,/=E,_E,/ D,E, | %411
 D,E,/=E,/- E,/_E,/D, E,/=E,_E,/ D,E, | D,E,/=E,/- E,/_E,/D, E,/=E,_E,/ D,E, | D,D,D,D, D,D,D,D, | %414
[M:7/8] D,D,D, D,D, D,D, |[M:4/4] _G,,G,,G,,G,, G,,G,,G,,G,, |[M:7/8] _G,,G,,G,, G,,G,, =E,_E, | %417
[M:4/4] D,D,D,D, D,D,D,D, |[M:7/8] D,D,D, D,D, D,D, |[M:4/4] _G,,G,,G,,G,, G,,G,,G,,G,, | %420
[M:7/8] _G,,G,,G,, G,,G,, =E,_E, |[M:4/4] A,,2 =A,,2 _C,2 =C,2 | %422
[M:3/4] D,E,/=E,/- E,/_G,/=G, _G,/E,_E,/ |[M:7/8] D,E,/=E,_G,/ =G,_G, E,_E, | %424
[M:4/4] A,,2 =A,,2 _C,2 =C,2 | D,E,/=E,/- E,/_E,/D, E,/=E,_E,/ D,E, | %426
 D,E,/=E,/- E,/_E,/D, E,/=E,_E,/ D,E, | D,D,D,D, D,D,D,D, |[M:7/8] D,D,D, D,D, D,D, | %429
[M:4/4] _G,,G,,G,,G,, G,,G,,G,,G,, |[M:7/8] _G,,G,,G,, G,,G,, =E,_E, |[M:4/4] D,D,D,D, D,D,D,D, | %432
[M:7/8] D,D,D, D,D, D,D, |[M:4/4] _G,,G,,G,,G,, G,,G,,G,,G,, |[M:7/8] _G,,G,,G,, G,,G,, =E,_E, | %435
[M:4/4] A,,2 =A,,2 _C,2 =C,2 |[M:3/4] D,E,/=E,/- E,/_G,/=G, _G,/E,_E,/ | %437
[M:7/8] D,E,/=E,_G,/ =G,_G, E,_E, |[M:4/4] A,,2 =A,,2 _C,2 =C,2 | %439
 D,E,/=E,/- E,/_E,/D, E,/=E,_E,/ D,E, | D,E,/=E,/- E,/_E,/D, E,/=E,_E,/ D,E, | %441
[M:7/8] C,3/2C,3/2 C,2 D,_C, |[M:4/4] C,>C,- C,C,- C,F,,B,,E, |[M:7/8] C,3/2C,3/2 C,2 D,_C, | %444
[M:4/4] C,>C,- C,C,- C,F,,B,,E, | DC_CB, A,G, _G,=E,/_E,/ |[M:7/8] C,3/2C,3/2 C,2 D,_C, | %447
[M:4/4] C,>C,- C,C,- C,F,,B,,E, |[M:7/8] C,3/2C,3/2 C,2 D,_C, |[M:4/4] C,>C,- C,C,- C,F,,B,,E, | %450
 A,,2 =A,,2 _C,2 =C,2 | D,E,/=E,/- E,/_E,/D, E,/=E,_E,/ D,E, | %452
 D,E,/=E,/- E,/_E,/D, E,/=E,_E,/ D,E, | A,,2 =A,,2 _C,2 =C,2 | D,E,/=E,/- E,/_G,/=G, z4 | %455
 G,,=A,,/B,,/- B,,/_C,/D, z4 | D,6- D,D, | E,2 E,4- E,E, | =E,6- E,E, | =D,2 D,4- D,D, | %460
 _C,6- C,D, | _G,2 G,4- G,=E, | E,6- E,C, | D,2 D,4- D,_C, | =A,,6- A,,A,, | A,,2 A,,4- A,,A,, | %466
 A,,6- A,,A,, | _G,,2 G,,4- G,,G,, | _G,,6- G,,G,, | D,6- D,D, | E,2 E,4- E,E, | =E,6- E,E, | %472
 =D,2 D,4- D,D, | _C,6- C,D, | _G,2 G,4- G,=E, | E,6- E,C, | D,2 D,4- D,_C, | =A,,6- A,,A,, | %478
 A,,2 A,,4- A,,A,, | A,,6- A,,A,, | _G,,2 G,,4- G,,G,, | _G,,8 | %482
 D,E,/=E,/- E,/_E,/D, E,/=E,_E,/ D,E, | D,E,/=E,/- E,/_E,/D, E,/=E,_E,/ D,E, | %484
 D,E,/=E,/- E,/_E,/D, E,/=E,_E,/ D,E, | D,E,/=E,/- E,/_E,/D, E,/=E,_E,/ D,E, | D,D,D,D, D,D,D,D, | %487
[M:7/8] D,D,D, D,D, D,D, |[M:4/4] _G,,G,,G,,G,, G,,G,,G,,G,, |[M:7/8] _G,,G,,G,, G,,G,, =E,_E, | %490
[M:4/4] D,D,D,D, D,D,D,D, |[M:7/8] D,D,D, D,D, D,D, |[M:4/4] _G,,G,,G,,G,, G,,G,,G,,G,, | %493
[M:7/8] _G,,G,,G,, G,,G,, =E,_E, |[M:4/4] A,,2 =A,,2 _C,2 =C,2 | %495
[M:3/4] D,E,/=E,/- E,/_G,/=G, _G,/E,_E,/ |[M:7/8] D,E,/=E,_G,/ =G,_G, E,_E, | %497
[M:4/4] A,,2 =A,,2 _C,2 =C,2 | D,E,/=E,/- E,/_E,/D, E,/=E,_E,/ D,E, |] %499
V:5
 z8 | z8 | z8 | z8 | z8 | z8 | z8 | z8 | z8 | z8 | z8 | z8 | z8 | z8 | z8 | z8 | z8 | z8 | z8 | %19
 z8 | z8 | z8 | z8 | z8 | z8 | z8 | z8 | z8 | [CE]8 | [CF]8 | [C=D]8 | [CE]8 | z8 | z8 | z8 | z8 | %36
 [CE]8 | [CF]8 | [C=D]8 | .[CE]4 z4 | z8 | z8 | z8 | z8 | z4[K:bass] C4 | C4 _C4 | C,8- | C,8 | %48
 z8 | z8 | z8 | z8 | z8 | z8 | z8 | z8 | z8 | z8 | z8 | z8 | z8 | z8 | z8 | z8 | z8 | z8 | z8 | %67
 z8 | z8 | z8 | z8 | z8 | z8 | z8 | z8 | z8 | z8 | z8 | z8 | z8 | z8 | z8 | z8 | z8 | z8 | z8 | %86
 z8 | z8 | z8 | z8 |[K:treble] [CE]8 | [CF]8 | [C=D]8 | [CE]8 | z8 | z8 | z8 | z8 | [CE]8 | [CF]8 | %100
 [C=D]8 | .[CE]4 z4 | z8 | z8 | z8 | z8 | z4[K:bass] C4 | C4 _C4 | C,8- | C,8 | z8 | z8 | z8 | z8 | %114
 z8 | z8 | z8 | z8 | z8 | z8 | z8 | z8 | z8 | z8 | z8 | z8 | z8 | z8 | z8 | z8 | z8 | z8 | z8 | %133
 z8 | z8 | z8 | z8 | z8 | z8 | z8 | z8 | z8 | z8 | z8 | z8 | z8 | z8 | z8 | z8 | z8 | z8 | z8 | %152
 z8 | z8 | z8 | z8 | z8 | z8 | z8 | z8 | z8 | z8 | z8 | z8 | z8 | z8 | z8 | z8 | z4 [D,A,]4 | %169
 z2 [D,A,]2 [C,G,]4 | z4 [D,A,]4 | z2 [D,A,]2 [C,G,]4 | z4 [=E,,_C,]4 | z2 [=E,,_C,]2 [_E,,B,,]4 | %174
 z4 [=E,,_C,]4 | z2 [=E,,_C,]2 [_E,,B,,]4 | z8 | z8 | z8 | z8 | z8 | z8 | z8 | z8 | z4 [D,A,]4 | %185
 z2 [D,A,]2 [C,G,]4 | z4 [D,A,]4 | z2 [D,A,]2 [C,G,]4 | z4 [=E,,_C,]4 | z2 [=E,,_C,]2 [_E,,B,,]4 | %190
 z4 [=E,,_C,]4 | z2 [=E,,_C,]2 [_E,,B,,]4 | z8 | z8 | z8 | z8 | z8 | z8 | z8 | z8 | z8 | z8 | z8 | %203
 z8 | z8 |[M:3/4] z6 |[M:2/2] z8 | z8 | z8 | z8 | z8 | z8 | z8 | z8 | z4 [D,A,]4 | %215
 z2 [D,A,]2 [C,G,]4 | z4 [D,A,]4 | z2 [D,A,]2 [C,G,]4 | z4 [=E,,_C,]4 | z2 [=E,,_C,]2 [_E,,B,,]4 | %220
 z4 [=E,,_C,]4 | z2 [=E,,_C,]2 [_E,,B,,]4 | z8 | z8 | z8 | z8 | z8 | z8 | z8 | z8 | z4 [D,A,]4 | %231
 z2 [D,A,]2 [C,G,]4 | z4 [D,A,]4 | z2 [D,A,]2 [C,G,]4 | z4 [=E,,_C,]4 | z2 [=E,,_C,]2 [_E,,B,,]4 | %236
 z4 [=E,,_C,]4 | z2 [=E,,_C,]2 [_E,,B,,]4 | z8 | z8 | z8 | z8 | z8 | z8 | z8 | z8 | z8 | z8 | z8 | %249
 z8 | z8 |[M:3/4] z6 |[M:4/4] [D,,A,,]8- | [D,,A,,]8 | D,8- | D,8 | z4 C,2 z2 | z8 | D,8- | D,8 | %260
 D,2 .D,2 D,2 z2 | D,2 .D,2 D,2 z2 | z8 | z8 | z8 | z8 | z8 | z8 | z8 | z8 | z2 C,2 _C,2 =A,,2 | %271
[M:3/4] z6 | z6 |[M:4/4] z8 | z8 | z8 | z8 | z8 |[M:2/4] z4 |[M:4/4] z8 | z8 | z8 | z8 | %283
[M:2/4] z4 |[M:4/4] z8 |[M:2/4] z4 |[M:4/4] z8 | z8 | D,8- | D,8 | z4 C,2 z2 | z8 | D,8- | D,8 | %294
 D,2 .D,2 D,2 z2 | D,2 .D,2 D,2 z2 | z8 | z8 | z8 | z8 | z8 | z8 | z8 | z8 | z2 C,2 _C,2 =A,,2 | %305
[M:3/4] =E,2 z2 z =E,, | =A,,2 z2 z A,, |[M:4/4] =D,C,B,,=A,, G,,2 A,,B,, | C,2 =D,=E, F,C,F,_E, | %309
 =D,C,B,,A,, G,,E,,B,,_D, | =A,,4 z/[K:treble] =D/C/D/ B,/D/[K:bass]=A,/D/ | %311
 G,_C=C[K:treble]E =D/_D/C/B,/[K:bass] =A,/=D,/_G,/A,/ |[M:2/4] G,=D, _G,=A, | %313
[M:4/4] G,3 _G, F,=E,_E,=D, | C,2 =D,2 E,2 F,2 | G,E,=D,_G, =G,4 | =D,,4 z4 |[M:2/4] z2 =D,,2 | %318
[M:4/4] E,,4 z4 |[M:2/4] z2 E,,2 |[M:4/4] D,,8 | A,,8 | z8 | z8 | z8 | z8 | z8 | =A,8- | A,8- | %329
 A,8- | A,8- | A,8 | z8 | z8 | z8 | z8 | z8 | z8 | z8 | z8 | z8 |[M:7/8] z7 |[M:4/4] z8 | %343
[M:7/8] z7 |[M:4/4] z8 |[M:7/8] z7 |[M:4/4] z8 |[M:7/8] z7 |[M:4/4] z8 |[M:3/4] z6 |[M:7/8] z7 | %351
[M:4/4] z8 | z8 | z8 | z8 |[M:7/8] z7 |[M:4/4] z8 |[M:7/8] z7 |[M:4/4] z8 |[M:7/8] z7 |[M:4/4] z8 | %361
[M:7/8] z7 |[M:4/4] z8 |[M:3/4] z6 |[M:7/8] z7 |[M:4/4] z8 | z8 | z8 |[M:7/8] z7 |[M:4/4] z8 | %370
[M:7/8] z7 |[M:4/4] z8 | z8 |[M:7/8] z7 |[M:4/4] z8 |[M:7/8] z7 |[M:4/4] z8 | z8 | z8 | z8 | z8 | %381
 z8 | z8 | z8 | z8 | z8 | z8 | z8 | z8 | z8 | z8 | z8 | z8 | z8 | z8 | z8 | z8 | z8 | z8 | z8 | %400
 z8 | z8 | z8 | z8 | z8 | z8 | z8 | z8 | z8 | z8 | z8 | z8 | z8 | z8 |[M:7/8] z7 |[M:4/4] z8 | %416
[M:7/8] z7 |[M:4/4] z8 |[M:7/8] z7 |[M:4/4] z8 |[M:7/8] z7 |[M:4/4] z8 |[M:3/4] z6 |[M:7/8] z7 | %424
[M:4/4] z8 | z8 | z8 | z8 |[M:7/8] z7 |[M:4/4] z8 |[M:7/8] z7 |[M:4/4] z8 |[M:7/8] z7 |[M:4/4] z8 | %434
[M:7/8] z7 |[M:4/4] z8 |[M:3/4] z6 |[M:7/8] z7 |[M:4/4] z8 | z8 | z8 |[M:7/8] z7 |[M:4/4] z8 | %443
[M:7/8] z7 |[M:4/4] z8 | z8 |[M:7/8] z7 |[M:4/4] z8 |[M:7/8] z7 |[M:4/4] z8 | z8 | z8 | z8 | z8 | %454
 z8 | z8 | z8 | z8 | z8 | z8 | z8 | z8 | z8 | z8 | z8 | z8 | z8 | z8 | z8 | z8 | z8 | z8 | z8 | %473
 z8 | z8 | z8 | z8 | z8 | z8 | z8 | z8 | z8 | z8 | z8 | z8 | z8 | z8 |[M:7/8] z7 |[M:4/4] z8 | %489
[M:7/8] z7 |[M:4/4] z8 |[M:7/8] z7 |[M:4/4] z8 |[M:7/8] z7 |[M:4/4] z8 |[M:3/4] z6 |[M:7/8] z7 | %497
[M:4/4] z8 | z8 |] %499
V:6
 x8 | x8 | x8 | x8 | x8 | x8 | x8 | x8 | x8 | x8 | x8 | x8 | x8 | x8 | x8 | x8 | x8 | x8 | x8 | %19
 x8 | x8 | x8 | x8 | x8 | x8 | x8 | x8 | x8 |[K:treble] x8 | x8 | x8 | x8 |[K:bass] x8 | x8 | x8 | %35
 x8 |[K:treble] x8 | x8 | x8 | x6[K:bass] x2 | x8 | x8 | C,8- | C,8 | x8 | x8 | x8 | x8 | z2 C,6- | %49
 C,8 | x8 | x8 | x8 | x8 | C,8- | C,8 | z2 C,6- | C,8 | C,8- | C,8 | z2 C,6- | C,8 | x8 | x8 | x8 | %65
 x8 | x8 | x8 | x8 | x8 | x8 | x8 | x8 | x8 | x8 | x8 | x8 | x8 | x8 | x8 | x8 | x8 | x8 | x8 | %84
 x8 | x8 | x8 | x8 | x8 | x8 |[K:treble] x8 | x8 | x8 | x8 |[K:bass] x8 | x8 | x8 | x8 | %98
[K:treble] x8 | x8 | x8 | x6[K:bass] x2 | x8 | x8 | C,8- | C,8 | x8 | x8 | x8 | x8 | z2 C,6- | %111
 C,8 | x8 | x8 | x8 | x8 | C,8- | C,8 | z2 C,6- | C,8 | C,8- | C,8 | z2 C,6- | C,8 | x8 | x8 | x8 | %127
 x8 | x8 | x8 | x8 | x8 | x8 | x8 | x8 | x8 | x8 | x8 | x8 | x8 | x8 | x8 | x8 | x8 | x8 | x8 | %146
 x8 | x8 | x8 | x8 | x8 | x8 | x8 | x8 | x8 | x8 | x8 | x8 | x8 | x8 | x8 | x8 | x8 | x8 | x8 | %165
 x8 | x8 | x8 | x4[K:treble] x4 | x8 | x8 | x8 | x4[K:bass] x4 | x8 | x8 | x8 | x8 | x8 | x8 | x8 | %180
 x8 | x8 | x8 | x8 | x4[K:treble] x4 | x8 | x8 | x8 | x4[K:bass] x4 | x8 | x8 | x8 | x8 | x8 | x8 | %195
 x8 |[K:treble] x8 | x2[K:bass] x6 | x8 | x8 | x8 | x8 | x8 | x8 | x8 |[M:3/4] x6 |[M:2/2] x8 | %207
 x8 | x8 | x8 | x8 | x8 | x8 | x8 | x4[K:treble] x4 | x8 | x8 | x8 | x4[K:bass] x4 | x8 | x8 | x8 | %222
 x8 | x8 | x8 | x8 | x8 | x8 | x8 | x8 | x4[K:treble] x4 | x8 | x8 | x8 | x4[K:bass] x4 | x8 | x8 | %237
 x8 | x8 | x8 | x8 | x8 |[K:treble] x8 | x2[K:bass] x6 | x8 | x8 | x8 | x8 | x8 | x8 | x8 | %251
[M:3/4] x6 |[M:4/4] x8 | x8 | x8 | x8 | x8 | x3[K:treble] x4[K:bass] x | x8 | x8 | x8 | x8 | x8 | %263
 x8 | x8 | x8 | x8 | x8 | x8 | x8 | x8 |[M:3/4] x6 | x6 |[M:4/4] x8 | x8 | x8 | %276
 x9/2[K:treble] x5/2[K:bass] x | x3[K:treble] x3[K:bass] x2 |[M:2/4] x4 |[M:4/4] x8 | x8 | x8 | %282
 x8 |[M:2/4] x4 |[M:4/4] x8 |[M:2/4] x4 |[M:4/4] x8 | x8 | x8 | x8 | x8 | %291
 x3[K:treble] x4[K:bass] x | x8 | x8 | x8 | x8 | x8 | x8 | x8 | x8 | x8 | x8 | x8 | x8 | x8 | %305
[M:3/4] x6 | x6 |[M:4/4] x8 | x8 | x8 | x8 | x8 |[M:2/4] x4 |[M:4/4] x8 | x8 | x8 | x8 | %317
[M:2/4] x4 |[M:4/4] x8 |[M:2/4] x4 |[M:4/4] x8 | x8 | x8 | x8 | x8 | x8 | x8 | x8 | x8 | x8 | x8 | %331
 x8 | x8 | x8 | x8 | x8 | x8 | x8 | x8 | x8 | x8 |[M:7/8] x7 |[M:4/4] x8 |[M:7/8] x7 |[M:4/4] x8 | %345
[M:7/8] x7 |[M:4/4] x8 |[M:7/8] x7 |[M:4/4] x8 |[M:3/4] x6 |[M:7/8] x7 |[M:4/4] x8 | x8 | x8 | x8 | %355
[M:7/8] x7 |[M:4/4] x8 |[M:7/8] x7 |[M:4/4] x8 |[M:7/8] x7 |[M:4/4] x8 |[M:7/8] x7 |[M:4/4] x8 | %363
[M:3/4] x6 |[M:7/8] x7 |[M:4/4] x8 | x8 | x8 |[M:7/8] x7 |[M:4/4] x8 |[M:7/8] x7 |[M:4/4] x8 | x8 | %373
[M:7/8] x7 |[M:4/4] x8 |[M:7/8] x7 |[M:4/4] x8 | x8 | x8 | x8 | x8 | x8 | x8 | x8 | x8 | x8 | x8 | %387
 x8 | x8 | x8 | x8 | x8 | x8 | x8 | x8 | x8 | x8 | x8 | x8 | x8 | x8 | x8 | x8 | x8 | x8 | x8 | %406
 x8 | x8 | x8 | x8 | x8 | x8 | x8 | x8 |[M:7/8] x7 |[M:4/4] x8 |[M:7/8] x7 |[M:4/4] x8 | %418
[M:7/8] x7 |[M:4/4] x8 |[M:7/8] x7 |[M:4/4] x8 |[M:3/4] x6 |[M:7/8] x7 |[M:4/4] x8 | x8 | x8 | x8 | %428
[M:7/8] x7 |[M:4/4] x8 |[M:7/8] x7 |[M:4/4] x8 |[M:7/8] x7 |[M:4/4] x8 |[M:7/8] x7 |[M:4/4] x8 | %436
[M:3/4] x6 |[M:7/8] x7 |[M:4/4] x8 | x8 | x8 |[M:7/8] x7 |[M:4/4] x8 |[M:7/8] x7 |[M:4/4] x8 | x8 | %446
[M:7/8] x7 |[M:4/4] x8 |[M:7/8] x7 |[M:4/4] x8 | x8 | x8 | x8 | x8 | x8 | x8 | x8 | x8 | x8 | x8 | %460
 x8 | x8 | x8 | x8 | x8 | x8 | x8 | x8 | x8 | x8 | x8 | x8 | x8 | x8 | x8 | x8 | x8 | x8 | x8 | %479
 x8 | x8 | x8 | x8 | x8 | x8 | x8 | x8 |[M:7/8] x7 |[M:4/4] x8 |[M:7/8] x7 |[M:4/4] x8 | %491
[M:7/8] x7 |[M:4/4] x8 |[M:7/8] x7 |[M:4/4] x8 |[M:3/4] x6 |[M:7/8] x7 |[M:4/4] x8 | x8 |] %499
V:7
 x8 | x8 | x8 | x8 | x8 | x8 | x8 | x8 | x8 | x8 | x8 | x8 | x8 | x8 | x8 | x8 | x8 | x8 | x8 | %19
 x8 | x8 | x8 | x8 | x8 | x8 | x8 | x8 | x8 | x8 | x8 | x8 | x8 | x8 | x8 | x8 | x8 | x8 | x8 | %38
 x8 | x8 | x8 | x8 | x8 | x8 | x4[K:bass] x4 | x8 | x8 | x8 | x8 | x8 | x8 | x8 | x8 | x8 | x8 | %55
 x8 | x8 | x8 | x8 | x8 | x8 | x8 | x8 | x8 | x8 | x8 | x8 | x8 | x8 | x8 | x8 | x8 | x8 | x8 | %74
 x8 | x8 | x8 | x8 | x8 | x8 | x8 | x8 | x8 | x8 | x8 | x8 | x8 | x8 | x8 | x8 |[K:treble] x8 | %91
 x8 | x8 | x8 | x8 | x8 | x8 | x8 | x8 | x8 | x8 | x8 | x8 | x8 | x8 | x8 | x4[K:bass] x4 | x8 | %108
 x8 | x8 | x8 | x8 | x8 | x8 | x8 | x8 | x8 | x8 | x8 | x8 | x8 | x8 | x8 | x8 | x8 | x8 | x8 | %127
 x8 | x8 | x8 | x8 | x8 | x8 | x8 | x8 | x8 | x8 | x8 | x8 | x8 | x8 | x8 | x8 | x8 | x8 | x8 | %146
 x8 | x8 | x8 | x8 | x8 | x8 | x8 | x8 | x8 | x8 | x8 | x8 | x8 | x8 | x8 | x8 | x8 | x8 | x8 | %165
 x8 | x8 | x8 | x8 | x8 | x8 | x8 | x8 | x8 | x8 | x8 | x8 | x8 | x8 | x8 | x8 | x8 | x8 | x8 | %184
 x8 | x8 | x8 | x8 | x8 | x8 | x8 | x8 | x8 | x8 | x8 | x8 | x8 | x8 | x8 | x8 | x8 | x8 | x8 | %203
 x8 | x8 |[M:3/4] x6 |[M:2/2] x8 | x8 | x8 | x8 | x8 | x8 | x8 | x8 | x8 | x8 | x8 | x8 | x8 | x8 | %220
 x8 | x8 | x8 | x8 | x8 | x8 | x8 | x8 | x8 | x8 | x8 | x8 | x8 | x8 | x8 | x8 | x8 | x8 | x8 | %239
 x8 | x8 | x8 | x8 | x8 | x8 | x8 | x8 | x8 | x8 | x8 | x8 |[M:3/4] x6 |[M:4/4] x8 | x8 | x8 | x8 | %256
 x8 | x8 | x8 | x8 | x8 | x8 | x8 | x8 | x8 | x8 | x8 | x8 | x8 | x8 | x8 |[M:3/4] x6 | x6 | %273
[M:4/4] x8 | x8 | x8 | x8 | x8 |[M:2/4] x4 |[M:4/4] x8 | x8 | x8 | x8 |[M:2/4] x4 |[M:4/4] x8 | %285
[M:2/4] x4 |[M:4/4] x8 | x8 | x8 | x8 | x8 | x8 | x8 | x8 | x8 | x8 | x8 | x8 | x8 | x8 | x8 | x8 | %302
 x8 | x8 | x8 |[M:3/4] x6 | x6 |[M:4/4] x8 | x8 | x8 | x9/2[K:treble] x5/2[K:bass] x | %311
 x3[K:treble] x3[K:bass] x2 |[M:2/4] x4 |[M:4/4] x8 | x8 | x8 | x8 |[M:2/4] x4 |[M:4/4] x8 | %319
[M:2/4] x4 |[M:4/4] x8 | x8 | x8 | x8 | x8 | x8 | =E,8- | E,8- | E,8- | E,8- | E,8- | E,8 | x8 | %333
 x8 | x8 | x8 | x8 | x8 | x8 | x8 | x8 |[M:7/8] x7 |[M:4/4] x8 |[M:7/8] x7 |[M:4/4] x8 | %345
[M:7/8] x7 |[M:4/4] x8 |[M:7/8] x7 |[M:4/4] x8 |[M:3/4] x6 |[M:7/8] x7 |[M:4/4] x8 | x8 | x8 | x8 | %355
[M:7/8] x7 |[M:4/4] x8 |[M:7/8] x7 |[M:4/4] x8 |[M:7/8] x7 |[M:4/4] x8 |[M:7/8] x7 |[M:4/4] x8 | %363
[M:3/4] x6 |[M:7/8] x7 |[M:4/4] x8 | x8 | x8 |[M:7/8] x7 |[M:4/4] x8 |[M:7/8] x7 |[M:4/4] x8 | x8 | %373
[M:7/8] x7 |[M:4/4] x8 |[M:7/8] x7 |[M:4/4] x8 | x8 | x8 | x8 | x8 | x8 | x8 | x8 | x8 | x8 | x8 | %387
 x8 | x8 | x8 | x8 | x8 | x8 | x8 | x8 | x8 | x8 | x8 | x8 | x8 | x8 | x8 | x8 | x8 | x8 | x8 | %406
 x8 | x8 | x8 | x8 | x8 | x8 | x8 | x8 |[M:7/8] x7 |[M:4/4] x8 |[M:7/8] x7 |[M:4/4] x8 | %418
[M:7/8] x7 |[M:4/4] x8 |[M:7/8] x7 |[M:4/4] x8 |[M:3/4] x6 |[M:7/8] x7 |[M:4/4] x8 | x8 | x8 | x8 | %428
[M:7/8] x7 |[M:4/4] x8 |[M:7/8] x7 |[M:4/4] x8 |[M:7/8] x7 |[M:4/4] x8 |[M:7/8] x7 |[M:4/4] x8 | %436
[M:3/4] x6 |[M:7/8] x7 |[M:4/4] x8 | x8 | x8 |[M:7/8] x7 |[M:4/4] x8 |[M:7/8] x7 |[M:4/4] x8 | x8 | %446
[M:7/8] x7 |[M:4/4] x8 |[M:7/8] x7 |[M:4/4] x8 | x8 | x8 | x8 | x8 | x8 | x8 | x8 | x8 | x8 | x8 | %460
 x8 | x8 | x8 | x8 | x8 | x8 | x8 | x8 | x8 | x8 | x8 | x8 | x8 | x8 | x8 | x8 | x8 | x8 | x8 | %479
 x8 | x8 | x8 | x8 | x8 | x8 | x8 | x8 |[M:7/8] x7 |[M:4/4] x8 |[M:7/8] x7 |[M:4/4] x8 | %491
[M:7/8] x7 |[M:4/4] x8 |[M:7/8] x7 |[M:4/4] x8 |[M:3/4] x6 |[M:7/8] x7 |[M:4/4] x8 | x8 |] %499

